Newaita-dark/.LP/32/mic-volume-medium.svg

<svg xmlns="http://www.w3.org/2000/svg" xmlns:xlink="http://www.w3.org/1999/xlink" width="32px" height="32px" viewBox="0 0 32 32" version="1.1">
<g id="surface1">
<path style=" stroke:none;fill-rule:nonzero;fill:rgb(25.882354%,25.882354%,25.882354%);fill-opacity:1;" d="M 10.585938 28.035156 L 21.167969 28.035156 L 21.167969 30.679688 L 10.585938 30.679688 Z M 10.585938 28.035156 "/>
<path style=" stroke:none;fill-rule:nonzero;fill:rgb(25.882354%,25.882354%,25.882354%);fill-opacity:1;" d="M 7.9375 16.125 L 7.9375 24.726562 C 7.9375 25.824219 8.824219 26.710938 9.921875 26.710938 L 21.832031 26.710938 C 22.929688 26.710938 23.816406 25.824219 23.816406 24.726562 L 23.816406 16.125 Z M 7.9375 16.125 "/>
<path style=" stroke:none;fill-rule:nonzero;fill:rgb(25.882354%,25.882354%,25.882354%);fill-opacity:0.392157;" d="M 7.9375 11.496094 L 7.9375 3.558594 C 7.9375 2.457031 8.824219 1.574219 9.921875 1.574219 L 21.832031 1.574219 C 22.929688 1.574219 23.816406 2.457031 23.816406 3.558594 L 23.816406 11.496094 Z M 7.9375 11.496094 "/>
<path style=" stroke:none;fill-rule:nonzero;fill:rgb(25.882354%,25.882354%,25.882354%);fill-opacity:1;" d="M 7.9375 12.820312 L 23.816406 12.820312 C 24.179688 12.820312 24.476562 13.113281 24.476562 13.480469 L 24.476562 14.140625 C 24.476562 14.507812 24.179688 14.804688 23.816406 14.804688 L 7.9375 14.804688 C 7.574219 14.804688 7.277344 14.507812 7.277344 14.140625 L 7.277344 13.480469 C 7.277344 13.113281 7.574219 12.820312 7.9375 12.820312 Z M 7.9375 12.820312 "/>
</g>
</svg>

<svg xmlns="http://www.w3.org/2000/svg" width="32" height="32"><g fill="#424242"><path d="M10.586 28.035h10.582v2.645H10.586zm0 0M7.938 16.125v8.602c0 1.097.886 1.984 1.984 1.984h11.91a1.982 1.982 0 0 0 1.984-1.984v-8.602zm0 0"/><path d="M7.938 11.496V3.56a1.98 1.98 0 0 1 1.984-1.985h11.91a1.98 1.98 0 0 1 1.984 1.985v7.937zm0 0" fill-opacity=".392"/><path d="M7.938 12.82h15.878a.66.66 0 0 1 .66.66v.66a.663.663 0 0 1-.66.665H7.938a.663.663 0 0 1-.66-.664v-.66a.66.66 0 0 1 .66-.66zm0 0"/></g></svg>
